!!!COM:      Bach, Johann Sebastian
!!!CDT:      1685/03/31/-1750/07/28/
!!!OPR@@GER: Das wohltemperirte Clavier
!!!OVM@@GER: Band II
!!!OPR@ENG:  Well-Tempered Clavier
!!!OVM@ENG:  Book II
!!!OTL:      Prelude
!!!OKY:      G minor
!!!ONM:      no. 16
!!!SCT:      BWV 885
!!!OMV:      1
**kern	**kern	**kern	**kern	**kern	**kern
*	*	*	*M4/4	*M4/4	*M4/4
*clefF4	*clefF4	*clefG2	*	*	*
*k[b-e-]	*k[b-e-]	*k[b-e-]	*	*	*
*g:	*g:	*g:	*	*	*
*M4/4	*M4/4	*M4/4	*	*	*
*met(c)	*met(c)	*met(c)	*	*	*
*MM36	*MM36	*MM36	*MM36	*MM36	*MM36
=1-	=1-	=1-	=1-	=1-	=1-
1GG	4r	16.r	1ryy	1ryy	1ryy
.	.	32g	.	.	.
.	.	16.d	.	.	.
.	.	32f	.	.	.
.	16.r	[4e-	.	.	.
.	32B-	.	.	.	.
.	16.A	.	.	.	.
.	32c	.	.	.	.
.	2F#	16.e-]	.	.	.
.	.	32e-	.	.	.
.	.	16.dw	.	.	.
.	.	32c	.	.	.
.	.	16.a	.	.	.
.	.	32c	.	.	.
.	.	16.B-W	.	.	.
.	.	32A	.	.	.
=2	=2	=2	=2	=2	=2
*	*	*	*	*	*staff:14
*	*	*	*	*	*clefG2
*	*	*	*	*	*k[b-e-]
1ryy	1G	8B-	1ryy	1ryy	16.r
.	.	.	.	.	32dd
.	.	8c	.	.	16.a
.	.	.	.	.	32cc
.	.	16.d	.	.	[4b-
.	.	32f	.	.	.
.	.	16.en	.	.	.
.	.	32g	.	.	.
.	.	2c#	.	.	16.b-]
.	.	.	.	.	32b-
.	.	.	.	.	16.aw
.	.	.	.	.	32g
.	.	.	.	.	16.een
.	.	.	.	.	32g
.	.	.	.	.	16.f#w
.	.	.	.	.	32e
=3	=3	=3	=3	=3	=3
*	*staff:11	*staff:11	*	*	*staff:12
*	*	*clefF4	*staff:12	*	*
*	*	*	*clefG2	*	*
*	*	*	*k[b-e-]	*	*
1ryy	[2.D	8.d	4ryy	1ryy	16.f#
.	.	.	.	.	32g
.	.	.	.	.	[8a
.	.	16cn	.	.	.
.	.	4B-	8ryy	.	16.a]
.	.	.	.	.	32d
.	.	.	[8g	.	16.g
.	.	.	.	.	32b-
.	.	4.A	16.g]	.	[4cc
.	.	.	32g	.	.
.	.	.	16.f#X	.	.
.	.	.	32en	.	.
.	8.D]	.	4f#	.	16.cc]
.	.	.	.	.	32dd
.	.	[8d	.	.	16.a
.	16E-X	.	.	.	.
.	.	.	.	.	32cc
=4	=4	=4	=4	=4	=4
1ryy	4F	8.d]	4g	1ryy	16.bn
.	.	.	.	.	32cc
.	.	.	.	.	[8dd
.	.	16Bn	.	.	.
.	4E-	8G	8r	.	16.dd]
.	.	.	.	.	32g
.	.	8e-	[8cc	.	16.cc
.	.	.	.	.	32ee-
.	4D	8A-	16.cc]	.	[4ff
.	.	.	32cc	.	.
.	.	8F	16.bn	.	.
.	.	.	32an	.	.
.	8G	[4G	4b	.	16.ff]
.	.	.	.	.	32gg
.	8GG	.	.	.	16.dd
.	.	.	.	.	32ff
=5	=5	=5	=5	=5	=5
*	*	*	*	*clefG2	*
*	*	*	*	*k[b-e-]	*
4ryy	1C	4G]	16.r	2ryy	4ee-
.	.	.	32cc	.	.
.	.	.	16.g	.	.
.	.	.	32b-X	.	.
16.r	.	4ryy	[4a-	.	4r
32e-	.	.	.	.	.
16.d	.	.	.	.	.
32f	.	.	.	.	.
2Bn	.	2ryy	16.a-]	4r	2ryy
.	.	.	32a-	.	.
.	.	.	16.g	.	.
.	.	.	32f	.	.
.	.	.	16.dd	[4dd	.
.	.	.	32f	.	.
.	.	.	16.e-	.	.
.	.	.	32d	.	.
=6	=6	=6	=6	=6	=6
[4c	1ryy	1ryy	8e-	8dd]	16.r
.	.	.	.	.	32gg
.	.	.	8f	8bn	16.dd
.	.	.	.	.	32ff
16.c]	.	.	8g	[4cc	[4ee-
32B-X	.	.	.	.	.
16.A	.	.	16.f#	.	.
32c	.	.	32g	.	.
2F#	.	.	8a	4cc_	16.ee-]
.	.	.	.	.	32ee-
.	.	.	4A	.	16.dd
.	.	.	.	.	32cc
.	.	.	.	16.cc]	[4aa
.	.	.	.	32cc	.
.	.	.	[8d	16.b-	.
.	.	.	.	32a	.
=7	=7	=7	=7	=7	=7
[2G	1ryy	1ryy	8d]	2b-	16.aa]
.	.	.	.	.	32gg
.	.	.	[8g	.	16.dd
.	.	.	.	.	32ff
.	.	.	16.g]	.	8ee-
.	.	.	32g	.	.
.	.	.	16.d	.	8gg
.	.	.	32f	.	.
16.G]	.	.	4en	[2a	4cc#
32A	.	.	.	.	.
16.En	.	.	.	.	.
32G	.	.	.	.	.
16.F	.	.	[4f	.	4dd
32D	.	.	.	.	.
16.AA	.	.	.	.	.
32Cn	.	.	.	.	.
=8	=8	=8	=8	=8	=8
4BB-	4ryy	1ryy	8f]	16.a]	[2dd
.	.	.	.	32en	.
.	.	.	8r	16.f	.
.	.	.	.	32d	.
4BBn	16.r	.	4ryy	8.g#w	.
.	32C#	.	.	.	.
.	16.D	.	.	.	.
.	.	.	.	16g#	.
.	32En	.	.	.	.
2AA	8F	.	2ryy	8a	16.dd]
.	.	.	.	.	32dd
.	8G	.	.	[8b-X	16.een
.	.	.	.	.	32ggn
.	8A	.	.	16.b-]	16.cc#
.	.	.	.	32a	32dd
.	8C#X	.	.	16.en	[8een
.	.	.	.	32gn	.
=9	=9	=9	=9	=9	=9
[2D	8D	1ryy	1ryy	4f	16.ee]
.	.	.	.	.	32dd
.	[8F	.	.	.	16.a
.	.	.	.	.	32ccn
.	16.F]	.	.	16.r	[4b-
.	32A	.	.	32f	.
.	16.G	.	.	16.en	.
.	32F	.	.	32g	.
2D]	8En	.	.	2c#	16.b-]
.	.	.	.	.	32b-
.	8F	.	.	.	16.a
.	.	.	.	.	32g
.	8G	.	.	.	16.een
.	.	.	.	.	32g
.	8B-	.	.	.	16.f#
.	.	.	.	.	32e
=10	=10	=10	=10	=10	=10
4Cn	8.A	1ryy	1ryy	4d	16.f#
.	.	.	.	.	32g
.	.	.	.	.	[8a
.	16F#	.	.	.	.
4BB-	8D	.	.	8r	16.a]
.	.	.	.	.	32d
.	8B-	.	.	[8g	16.g
.	.	.	.	.	32b-
4AA	8E-	.	.	16.g]	[4cc
.	.	.	.	32g	.
.	8C	.	.	16.f#X	.
.	.	.	.	32en	.
8D	[4D	.	.	4f#	16.cc]
.	.	.	.	.	32dd
8DD	.	.	.	.	16.a
.	.	.	.	.	32cc
=11	=11	=11	=11	=11	=11
*	*	*staff:6	*	*	*
*	*	*clefG2	*	*	*
8GG	8D]	16.r	1ryy	1ryy	[4b-
.	.	32g	.	.	.
16.BB-	8ryy	16.d	.	.	.
32D	.	32fn	.	.	.
[4G	4ryy	8e-	.	.	16.b-]
.	.	.	.	.	32b-
.	.	8B-	.	.	16.ee-
.	.	.	.	.	32gg
16.G]	2ryy	16.c	.	.	[2a-
32F	.	32d	.	.	.
16.C	.	16.e-	.	.	.
32E-	.	32c	.	.	.
16.D	.	8.fW	.	.	.
32BB-	.	.	.	.	.
16.FF	.	.	.	.	.
.	.	16f	.	.	.
32AA-	.	.	.	.	.
=12	=12	=12	=12	=12	=12
2GG	8r	[4B-	1ryy	1ryy	16.a-]
.	.	.	.	.	32d
.	8BB-	.	.	.	16.f
.	.	.	.	.	32a-
.	8E-	16.B-]	.	.	8.g
.	.	32B-	.	.	.
.	8G	[8e-	.	.	.
.	.	.	.	.	16g
4AAn	4C	16.e-]	.	.	[4f
.	.	32e-	.	.	.
.	.	16.d	.	.	.
.	.	32c	.	.	.
4BBn	[4G	[4d	.	.	16.f]
.	.	.	.	.	32f
.	.	.	.	.	16.g
.	.	.	.	.	32d
=13	=13	=13	=13	=13	=13
4C	8G]	16.d]	2ryy	1ryy	[4e-
.	.	32Bn	.	.	.
.	8r	16.c	.	.	.
.	.	32G	.	.	.
8r	4ryy	16.E-	.	.	16.e-]
.	.	32G	.	.	32ee-
[8C	.	16.C	.	.	16.a
.	.	32E-	.	.	32cc
8.C]	2ryy	16.D	4ryy	.	16.f#
.	.	32F#X	.	.	32d
.	.	[8A	.	.	16.f#
16C	.	.	.	.	.
.	.	.	.	.	32a
[4BB-X	.	16.A]	16.r	.	[4dd
.	.	32F#X	32a	.	.
.	.	16.G	16.b-	.	.
.	.	32A	32f#X	.	.
=14	=14	=14	=14	=14	=14
*	*	*staff:3	*	*	*
*	*	*clefF4	*	*	*
16.BB-]	1ryy	[4B-	2g	1ryy	4dd_
32BB-	.	.	.	.	.
16.C	.	.	.	.	.
32D	.	.	.	.	.
[4E-	.	16.B-]	.	.	16.dd]
.	.	32B-	.	.	32gg
.	.	16.A	.	.	16.cc
.	.	32B-	.	.	32ee-
4E-]	.	16.c	16f	.	16.a
.	.	.	16r	.	.
.	.	32A	.	.	32f
.	.	16.F	8r	.	16.a
.	.	32A	.	.	32cc
16.r	.	[4d	16.r	.	[4ff
32D	.	.	32f	.	.
16.E-	.	.	16.g	.	.
32F	.	.	32a	.	.
=15	=15	=15	=15	=15	=15
2G	1ryy	4d_	[2b-	1ryy	16.ff]
.	.	.	.	.	32bb-
.	.	.	.	.	16.gg
.	.	.	.	.	32dd
.	.	16.d]	.	.	8.eenw
.	.	32d-	.	.	.
.	.	16.c	.	.	.
.	.	.	.	.	16ee
.	.	32B-	.	.	.
[2F	.	[4c	16.b-]	.	[4ff
.	.	.	32b-	.	.
.	.	.	16.a-	.	.
.	.	.	32g	.	.
.	.	16.c]	4a-	.	16.ff]
.	.	32c	.	.	32ee-
.	.	16.f	.	.	16.dd
.	.	32e-	.	.	32ff
=16	=16	=16	=16	=16	=16
16.F]	1ryy	4d	[2g	1ryy	4bn
32G	.	.	.	.	.
16.D	.	.	.	.	.
32F	.	.	.	.	.
16.E-	.	[4e-	.	.	[4cc
32C	.	.	.	.	.
16.GG	.	.	.	.	.
32BB-X	.	.	.	.	.
2AA	.	8e-]	8g]	.	16.cc]
.	.	.	.	.	32dd
.	.	8G	8r	.	16.ee-
.	.	.	.	.	32b-
.	.	8F#	16.r	.	[4cc
.	.	.	32g	.	.
.	.	[8A	16.f#	.	.
.	.	.	32a	.	.
=17	=17	=17	=17	=17	=17
2BB-	1ryy	8A]	[4d	1ryy	16.cc]
.	.	.	.	.	32cc
.	.	16.G	.	.	16.dd
.	.	32F#	.	.	32a
.	.	[4G	16.d]	.	[4b-
.	.	.	32f#	.	.
.	.	.	16.g	.	.
.	.	.	32d	.	.
[2C	.	8G]	2e-	.	16.b-]
.	.	.	.	.	32ee-
.	.	[8c	.	.	16.g
.	.	.	.	.	32b-
.	.	16.c]	.	.	8a-
.	.	32c	.	.	.
.	.	16.G	.	.	8cc
.	.	32B-	.	.	.
=18	=18	=18	=18	=18	=18
*	*staff:1	*	*	*	*
16.C]	2ryy	4A	[2d	1ryy	4f#
32D	.	.	.	.	.
16.AA	.	.	.	.	.
32C	.	.	.	.	.
16.BB-	.	4B-	.	.	[4g
32GG	.	.	.	.	.
16.DD	.	.	.	.	.
32FFn	.	.	.	.	.
8EE-	4r	2ryy	4d]	.	16.g]
.	.	.	.	.	32f#X
16.E-	.	.	.	.	16.g
32D	.	.	.	.	[32b-
8E-	16.r	.	4c#	.	16.b-]
.	32F#	.	.	.	32b-
8En	16.G	.	.	.	16.a
.	32A	.	.	.	32g
=19	=19	=19	=19	=19	=19
1D	[4B-	1ryy	16.d	1ryy	8.f#
.	.	.	32c#	.	.
.	.	.	[8d	.	.
.	.	.	.	.	16f#
.	16.B-]	.	16.d]	.	[4g
.	32B-	.	32c#	.	.
.	16.A	.	[8d	.	.
.	32G	.	.	.	.
.	2A	.	8d]	.	16.g]
.	.	.	.	.	32b-
.	.	.	[8cn	.	16.a
.	.	.	.	.	32cc
.	.	.	16.c]	.	4f#X
.	.	.	32e-	.	.
.	.	.	16.d	.	.
.	.	.	[32c	.	.
=20	=20	=20	=20	=20	=20
[1GG	[4G	1ryy	16.c]	1ryy	8.g
.	.	.	32A	.	.
.	.	.	[8Bn	.	.
.	.	.	.	.	16fn
.	8.G]	.	16.B]	.	8.e-
.	.	.	32B	.	.
.	.	.	[8c	.	.
.	16F#	.	.	.	16e-
.	8.G	.	16.c]	.	8d
.	.	.	32c	.	.
.	.	.	8Bn	.	16r
.	32Fn	.	.	.	16g
.	32E-	.	.	.	.
.	16.D	.	16.r	.	8.ff
.	32GG	.	32cc	.	.
.	[8G	.	[8bn	.	.
.	.	.	.	.	16dd
=21	=21	=21	=21	=21	=21
*	*	*	*	*staff:2	*
1GG]	16.G]	1ryy	16.b]	2ryy	8.ee-
.	32F	.	32g	.	.
.	16.E-	.	[8cc	.	.
.	.	.	.	.	16dd
.	32G	.	.	.	.
.	16.C	.	16.cc]	.	16.ee-
.	64E-	.	32cc	.	32cc
.	64D	.	.	.	.
.	8E-	.	[8cc	.	16.gg
.	.	.	.	.	32ff#
.	2D	.	16.cc]	8ryy	2gg
.	.	.	32cc	.	.
.	.	.	16.dd	[8dd	.
.	.	.	32an	.	.
.	.	.	4bn;y	4dd;]	.
==	==	==	==	==	==
*-	*-	*-	*-	*-	*-
!!!AFR:  prelude
!!!EFL:  79/96
!!!END:  1994/02/12/
!!!VID:  254628460 Bach, BWV 885-01
!!!AST:  Baroque
!!!OCY:  Deutschland
!!!ODT:  1742///
!!!PDT:  1801///
!!!EED:  Walter Hewlett
!!!ENC:  Walter Hewlett
!!!YOR:  Bach Gesellschaft Edition xiv
!!!AFT:  enhanced SCORE
!!!RDT:  2011/10/07/ by Andreas Kornstaedt using massScr2hmd
!!!SCA1: Thematisch-systematisches Verzeichnis der musikalischen Werke 
!!!SCA2: Johann Sebastian Bach: Bach-Werke-Verzeichnis (Schmieder)
!!!YEC1: Copyright 1994, 2000 Center for Computer Assisted Research 
!!!YEC2: in the Humanities
!!!YEM1: Rights to all derivative editions reserved.
!!!YEM2: Refer to licensing agreement for further details.
!!!YEN:  United States of America
!!!ref:  @{OTL}, @{SCT}
!!muse2ps: T^@{OTL} @{ONM} in @{OKY}^C^J.S. Bach\n@{SCT}-@{OMV}^
!!muse2ps: u^@{OPR@ENG}, @{OVM@ENG}^j
